src/lib/packages/icons/src/assets/line/user-eye.svg

<svg xmlns="http://www.w3.org/2000/svg" width="24" height="24" fill="none"><path fill="currentColor" d="M10.009 10.75a4.255 4.255 0 0 0 4.25-4.25 4.255 4.255 0 0 0-4.25-4.25 4.255 4.255 0 0 0-4.25 4.25 4.255 4.255 0 0 0 4.25 4.25Zm0-7a2.752 2.752 0 0 1 2.75 2.75 2.752 2.752 0 0 1-2.75 2.75 2.752 2.752 0 0 1-2.75-2.75 2.752 2.752 0 0 1 2.75-2.75ZM3.75 18.02c0 1.563.673 2.23 2.25 2.23h4a.75.75 0 0 1 0 1.5H6c-2.418 0-3.75-1.325-3.75-3.73 0-2.662 1.506-5.77 5.75-5.77h4c.421 0 .787.026 1.119.08.409.065.688.45.621.859a.754.754 0 0 1-.859.621 5.514 5.514 0 0 0-.881-.06H8c-3.943 0-4.25 3.269-4.25 4.27Zm18.689-.643c-.697-1.167-2.267-3.127-4.939-3.127s-4.242 1.959-4.939 3.126a2.183 2.183 0 0 0 0 2.247c.697 1.167 2.267 3.127 4.939 3.127s4.242-1.959 4.939-3.127a2.182 2.182 0 0 0 0-2.246Zm-1.287 1.476c-.535.896-1.72 2.397-3.652 2.397-1.932 0-3.117-1.501-3.652-2.397a.685.685 0 0 1 0-.707c.535-.895 1.72-2.396 3.652-2.396 1.932 0 3.117 1.501 3.652 2.397a.683.683 0 0 1 0 .706ZM18.77 18.5c0 .69-.56 1.25-1.25 1.25-.689 0-1.255-.56-1.255-1.25s.555-1.25 1.245-1.25h.01c.69 0 1.25.56 1.25 1.25Z"/></svg>

<svg width="24" height="24" viewBox="0 0 24 24" fill="none" xmlns="http://www.w3.org/2000/svg">
<path d="M10.009 10.75C12.353 10.75 14.259 8.843 14.259 6.5C14.259 4.157 12.353 2.25 10.009 2.25C7.66503 2.25 5.75903 4.157 5.75903 6.5C5.75903 8.843 7.66503 10.75 10.009 10.75ZM10.009 3.75C11.526 3.75 12.759 4.983 12.759 6.5C12.759 8.017 11.526 9.25 10.009 9.25C8.49203 9.25 7.25903 8.017 7.25903 6.5C7.25903 4.983 8.49203 3.75 10.009 3.75ZM3.75 18.02C3.75 19.583 4.423 20.25 6 20.25H10C10.414 20.25 10.75 20.586 10.75 21C10.75 21.414 10.414 21.75 10 21.75H6C3.582 21.75 2.25 20.425 2.25 18.02C2.25 15.358 3.756 12.25 8 12.25H12C12.421 12.25 12.787 12.276 13.119 12.33C13.528 12.395 13.807 12.78 13.74 13.189C13.675 13.598 13.279 13.8761 12.881 13.8101C12.629 13.7691 12.341 13.75 12 13.75H8C4.057 13.75 3.75 17.019 3.75 18.02ZM22.439 17.377C21.742 16.21 20.172 14.25 17.5 14.25C14.828 14.25 13.258 16.209 12.561 17.376C12.146 18.069 12.146 18.93 12.561 19.623C13.258 20.79 14.828 22.75 17.5 22.75C20.172 22.75 21.742 20.791 22.439 19.623C22.854 18.93 22.854 18.069 22.439 17.377ZM21.152 18.853C20.617 19.749 19.432 21.25 17.5 21.25C15.568 21.25 14.383 19.749 13.848 18.853C13.717 18.635 13.717 18.365 13.848 18.146C14.383 17.251 15.568 15.75 17.5 15.75C19.432 15.75 20.617 17.251 21.152 18.147C21.283 18.365 21.283 18.635 21.152 18.853ZM18.77 18.5C18.77 19.19 18.21 19.75 17.52 19.75C16.831 19.75 16.265 19.19 16.265 18.5C16.265 17.81 16.82 17.25 17.51 17.25H17.52C18.21 17.25 18.77 17.81 18.77 18.5Z" fill="currentColor"/>
</svg>
